src/svg/uf23e-expeditedssl.svg

<!-- Generated by IcoMoon.io -->
<svg version="1.1" xmlns="http://www.w3.org/2000/svg" width="32" height="32" viewBox="0 0 32 32">
<path d="M16 1.143c-8.196 0-14.857 6.661-14.857 14.857s6.661 14.857 14.857 14.857 14.857-6.661 14.857-14.857-6.661-14.857-14.857-14.857zM16 0c8.839 0 16 7.161 16 16s-7.161 16-16 16-16-7.161-16-16 7.161-16 16-16zM8.857 14.857c0.161 0 0.286 0.125 0.286 0.286v8.571c0 0.161-0.125 0.286-0.286 0.286h-0.571c-0.161 0-0.286-0.125-0.286-0.286v-8.571c0-0.161 0.125-0.286 0.286-0.286h0.571zM16 16c1.268 0 2.286 1.018 2.286 2.286 0 0.839-0.464 1.571-1.143 1.964v2.036c0 0.321-0.25 0.571-0.571 0.571h-1.143c-0.321 0-0.571-0.25-0.571-0.571v-2.036c-0.679-0.393-1.143-1.125-1.143-1.964 0-1.268 1.018-2.286 2.286-2.286zM16 2.286c7.571 0 13.714 6.143 13.714 13.714s-6.143 13.714-13.714 13.714-13.714-6.143-13.714-13.714 6.143-13.714 13.714-13.714zM9.714 10.857v1.714c0 0.321 0.25 0.571 0.571 0.571h1.143c0.321 0 0.571-0.25 0.571-0.571v-1.714c0-2.214 1.786-4 4-4s4 1.786 4 4v1.714c0 0.321 0.25 0.571 0.571 0.571h1.143c0.321 0 0.571-0.25 0.571-0.571v-1.714c0-3.464-2.821-6.286-6.286-6.286s-6.286 2.821-6.286 6.286zM25.143 24v-9.143c0-0.625-0.518-1.143-1.143-1.143h-16c-0.625 0-1.143 0.518-1.143 1.143v9.143c0 0.625 0.518 1.143 1.143 1.143h16c0.625 0 1.143-0.518 1.143-1.143z"></path>
</svg>

<svg xmlns="http://www.w3.org/2000/svg" width="32" height="32"><path d="M16 1.143C7.804 1.143 1.143 7.804 1.143 16S7.804 30.857 16 30.857 30.857 24.196 30.857 16 24.196 1.143 16 1.143zM16 0c8.839 0 16 7.161 16 16s-7.161 16-16 16S0 24.839 0 16 7.161 0 16 0zM8.857 14.857c.161 0 .286.125.286.286v8.571a.282.282 0 0 1-.286.286h-.571A.282.282 0 0 1 8 23.714v-8.571c0-.161.125-.286.286-.286h.571zM16 16a2.279 2.279 0 0 1 2.286 2.286c0 .839-.464 1.571-1.143 1.964v2.036c0 .321-.25.571-.571.571h-1.143a.564.564 0 0 1-.571-.571V20.25a2.274 2.274 0 0 1-1.143-1.964A2.279 2.279 0 0 1 16.001 16zm0-13.714c7.571 0 13.714 6.143 13.714 13.714S23.571 29.714 16 29.714 2.286 23.571 2.286 16 8.429 2.286 16 2.286zm-6.286 8.571v1.714c0 .321.25.571.571.571h1.143c.321 0 .571-.25.571-.571v-1.714c0-2.214 1.786-4 4-4s4 1.786 4 4v1.714c0 .321.25.571.571.571h1.143c.321 0 .571-.25.571-.571v-1.714c0-3.464-2.821-6.286-6.286-6.286s-6.286 2.821-6.286 6.286zM25.143 24v-9.143c0-.625-.518-1.143-1.143-1.143H8c-.625 0-1.143.518-1.143 1.143V24c0 .625.518 1.143 1.143 1.143h16c.625 0 1.143-.518 1.143-1.143z"/></svg>
